X:20
T:Clanranald
T:Mac 'Ic Ailein
R:Slow Strathspey
S:Simon Fraser Collection
N:No.188
O:Scottish
M:C
L:1/8
Q:1/4=120
K:F
B|A>BA>G F>DD>E|F>GA>B c>A A<f|c<A A>G F>DD>c|d>cA>F [E3G3]:|
c|f2 (g3/2f/4g/4) a>AA>a|f>a (g/f/g/a/) c'>aa>g|f2 (g3/2f/4g/4) aAAg|
(a/g/)(f/e/) f>^c d2 (d>e)|f2 (g3/2f/4g/4) a>AA>a|
f>a (g/f/g/a/) c'>aa3/2(f/4g/4)|a>gf>e d>c A<c|d>cA>F [E3G3]||

